X:1
T:Whom Have I in Heaven but You?
T:Whom Have I in Heaven but You?
T:Scott Werdebaugh
T:Scott Werdebaugh, 1995
T:© 1995 Scott Werdebaugh. Reproduce or publish freely for Christian worship or devotions. Courtesy of the Cyber Hymnal™
T:© 1995 Scott Werdebaugh. Reproduce or publish freely for Christian worship or devotions. Courtesy of the Cyber Hymnal™
C:Scott Werdebaugh
Z:© 1995 Scott Werdebaugh. Reproduce or publish freely for Christian worship or devotions.
Z:Courtesy of the Cyber Hymnal™
%%score 1 ( 2 3 ) ( 4 5 )
L:1/8
Q:1/4=115
M:4/4
K:F
V:1 treble 
V:2 treble 
V:3 treble 
V:4 bass 
V:5 bass 
V:1
"^In Reverent Reflection" D2 A2 A2 G2 | (F>E) D4 E2 | F4 (G7/2 A/) | A6 z2 | D2 A2 A2 G2 | %5
w: Whom have~~~ I in|hea- * ven but|You, my *|God?|Whom have~~~ I in|
 (F>E) D4 E2 | F4 (E7/2 D/) | D6 z2 |1 B2 B2 B>A G2 | A2 A>G F4 | G/ G7/2 F2 (G>A) | A6 z2 | %12
w: hea- * ven but|You my *|God!|There is no- thing on|earth I de- sire;|no- thing be- sides *|You.|
 B4 B>A G2 | A2 A>G F4 | G2 G2 F2 (G>F) | E6 z2 :|2 B2 B2 B>A G2 || A2 A>G F4 | G2 G2 G>F G2 | %19
w: My flesh and my|heart, they may fail|when a- part from *|You.|O Lord God, You’re the|strength of my heart,|and my por- tion for-|
 A4 A4 | B2 B2 B>A G2 | A2 A2 A>G F2 | G2 G2 G>F G2 | A4 A4 | D2 A2 A2 G2 | (F>E) D4 E2 | %26
w: ev- er;|It is good for me|to be near You, God,|You’re my Re- fuge and|Sav- ior!|Whom have~~~ I in|Hea- * ven but|
 F4 (G7/2 A/) | A6 z2 | D2 A2 A2 G2 | (F>E) D4 E2 | F4 (E7/2 D/) | D8 |] %32
w: You, my *|God?|Whom have~~~ I in|Hea- * ven but|You, my *|God!|
V:2
 D2 [FA]2 [EA]2 [EG]2 | (F>E) D4 [^CE]2 | [DF]4 (G7/2 A/) | A8 | D2 [FA]2 [EA]2 [EG]2 | %5
 (F>E) D4 [^CE]2 | [DF]4 (E7/2 D/) | D8 |1 [GB]2 [GB]2 B>A [EG]2 | [FA]2 A>G [DF]4 | %10
 G/ G7/2 [DF]2 (G>A) | A8 | [DB]4 B>A [EG]2 | [FA]2 A>G [DF]4 | G2 G2 F2 (G>F) | E8 :|2 %16
 B2 B2 B>A [EG]2 || A2 A>G [DF]4 | G2 G2 G>F [DG]2 | [DA]4 [^CA]4 | B2 B2 B>A [EG]2 | %21
 A2 A2 A>G [DF]2 | G2 G2 G>F [DG]2 | [DA]4 [^CA]4 | D2 [FA]2 [EA]2 [EG]2 | (F>E) D4 [^CE]2 | %26
 [DF]4 (G7/2 A/) | A8 | D2 [FA]2 [EA]2 [EG]2 | (F>E) D4 [^CE]2 | [DF]4 (E7/2 D/) | [A,D]8 |] %32
V:3
 D2 x6 | D2 D4 x2 | x4 D4 | (D4 ^C4) | D2 x6 | D2 D4 x2 | x4 ^C4 | x8 |1 x4 E2 x2 | x2 D2 x4 | %10
 D4 x3/2 D2 x/ | (D4 ^C4) | x4 E2 x2 | x2 D2 x4 | D4 D4 | (D4 ^C4) :|2 G4 E2 x2 || F4 x4 | %18
 D4 D2 x2 | x8 | G4 E2 x2 | F4 D2 x2 | D4 D2 x2 | x8 | D2 x6 | D2 D4 x2 | x4 D4 | (D4 ^C4) | %28
 D2 x6 | D2 D4 x2 | x4 ^C4 | x8 |] %32
V:4
 [F,A,]2 [D,F,]2 [^C,A,]4 | [D,A,]2 [F,A,]4 [E,A,]2 | [D,A,]4 [G,B,]4 | ([E,A,]4 A,2 G,2) | %4
 [F,A,]2 [D,F,]2 [^C,A,]4 | [D,A,]2 [F,A,]4 [E,A,]2 | [D,A,]4 (A,2 G,2) | [D,F,A,]8 |1 %8
 [D,G,]4 G,>F, [C,E,]2 | [D,F,]4 [D,A,]4 | [G,B,]4 [B,,G,]4 | [E,A,]4 (A,2 G,2) | %12
 [G,,G,]4 [C,G,]4 | [D,F,]4 [D,A,]4 | [G,B,]4 [B,,G,]4 | [E,A,]4 (A,2 G,2) :|2 %16
 [D,G,]4 G,>F, [C,E,]2 || [D,F,]4 [D,A,]4 | [G,B,]4 [B,,G,]4 | [E,A,]4 (A,2 G,2) | %20
 [G,,D,]4 [C,G,]4 | [D,F,]4 F,2 A,2 | [G,B,]4 [B,,G,]4 | [E,A,]4 (A,2 G,2) | %24
 [F,A,]2 [D,F,]2 [^C,A,]4 | [D,A,]2 [F,A,]4 [E,A,]2 | [D,A,]4 [G,B,]4 | [E,A,]4 (A,2 G,2) | %28
 [F,A,]2 [D,F,]2 [^C,A,]4 | [D,A,]2 [F,A,]4 [E,A,]2 | [D,A,]4 (A,2 G,2) | [D,^F,]8 |] %32
V:5
 x8 | x8 | x8 | x4 A,,4 | x8 | x8 | x4 E,4 | x8 |1 x4 C,2 x2 | x8 | x8 | x4 A,,4 | x8 | x8 | x8 | %15
 x4 A,,4 :|2 x4 C,2 x2 || x8 | x8 | x4 A,,4 | x8 | x4 D,4 | x8 | x4 A,,4 | x8 | x8 | x8 | x4 A,,4 | %28
 x8 | x8 | x4 E,4 | x8 |] %32

